admin/src/assets/doctor_icon.svg

<svg width="66" height="65" viewBox="0 0 66 65" fill="none" xmlns="http://www.w3.org/2000/svg">
<rect width="66" height="65" rx="10" fill="#F6F8FF"/>
<path d="M26.613 26.1499L26.8405 26.1304C26.9267 26.1207 27.0047 26.0898 27.0697 26.0443L27.068 26.0459C27.2858 26.7967 27.5523 27.5865 27.8854 28.4136C28.3128 29.4959 28.7337 30.3848 29.205 31.2428L29.14 31.1128C29.101 31.7043 29.0539 32.3121 28.9921 32.9004C28.9628 33.2628 28.8913 33.6008 28.7825 33.9193L28.7906 33.89C28.7711 33.8982 28.7435 37.2701 28.7435 37.2701C28.7451 39.4688 30.2678 41.31 32.3153 41.7992L32.3478 41.8057C32.4405 41.57 32.6647 41.4059 32.928 41.4059H33.8608C34.1224 41.4091 34.3466 41.5716 34.4393 41.8008L34.4409 41.8057C36.5258 41.3149 38.055 39.4737 38.0631 37.2734C38.0631 37.2734 38.0063 33.9144 37.977 33.8917C37.8876 33.6073 37.8161 33.2725 37.7787 32.928L37.7771 32.9036C37.7202 32.3121 37.6829 31.719 37.6292 31.1161C38.0306 30.3913 38.4515 29.504 38.822 28.5891L38.8838 28.4169C39.2169 27.5897 39.4753 26.8016 39.7012 26.0492C39.7646 26.0947 39.8426 26.1255 39.9271 26.1353H39.9287L40.1578 26.1548C40.4341 26.184 40.6778 25.9565 40.7006 25.6039L40.9476 22.4659C40.9476 22.4643 40.9476 22.4627 40.9476 22.4627C40.9476 22.1978 40.7493 21.98 40.4942 21.9475H40.491H40.4633C40.5267 21.4909 40.5625 20.9644 40.5625 20.4297C40.5625 19.2629 40.3902 18.1352 40.0701 17.074L40.0912 17.1569C39.1535 15.0996 37.2945 13.6061 35.0552 13.1885L35.0129 13.182C34.5319 13.0829 33.9713 13.0163 33.3992 13H33.3846H33.3651C32.7817 13.0114 32.2211 13.0764 31.6783 13.1918L31.7368 13.182C29.4585 13.611 27.6027 15.1044 26.6764 17.113L26.6585 17.1569C26.3563 18.1319 26.1824 19.2532 26.1824 20.4135C26.1824 20.9546 26.2198 21.4876 26.2929 22.0077L26.2864 21.9475C26.028 21.9768 25.8281 22.1929 25.8281 22.4562V22.4675L26.0751 25.6055C26.0979 25.9663 26.3449 26.184 26.6114 26.1548L26.613 26.1499Z" fill="#F7DECE"/>
<path d="M50.8034 46.9171C50.6897 41.977 50.1957 40.859 49.9291 40.1017C49.8235 39.7978 49.7374 37.7437 46.3443 36.4112C44.2642 35.5922 41.5796 35.5759 39.3078 34.6155V37.2871C39.3029 40.1602 37.2456 42.5506 34.5237 43.0723L34.4863 43.0788C34.4359 43.3745 34.1824 43.5955 33.8785 43.5988H33.8493V45.6139C33.8493 47.5834 35.4451 49.1792 37.4146 49.1792C39.3842 49.1792 40.98 47.5834 40.98 45.6139V44.2066C39.992 44.0587 39.2428 43.2169 39.2428 42.1996C39.2428 41.08 40.1512 40.1716 41.2709 40.1716C42.3905 40.1716 43.2989 41.08 43.2989 42.1996C43.2989 43.0869 42.7285 43.8409 41.9355 44.1172L41.9209 44.1221V45.6139V45.6902C41.9209 48.1798 39.9026 50.1981 37.413 50.1981C34.9234 50.1981 32.9051 48.1798 32.9051 45.6902C32.9051 45.6626 32.9051 45.6366 32.9051 45.609V45.6122V43.5793C32.6159 43.5598 32.3819 43.342 32.3363 43.0625V43.0593C29.59 42.5246 27.5424 40.1423 27.5359 37.2806V34.5879C25.2544 35.5678 22.5535 35.5873 20.4621 36.4079C17.0592 37.7389 16.9812 39.7881 16.8772 40.0968C16.6172 40.8573 16.1167 41.9705 16.003 46.9139C15.9835 47.5639 16.003 48.5601 17.9628 49.4311C22.2302 51.1049 27.7277 51.6249 33.1472 51.9987H33.6673C39.0982 51.6282 44.5876 51.1098 48.8517 49.4311C50.8034 48.5649 50.8213 47.5737 50.8034 46.9171ZM26.9461 44.9021H24.9212V46.935H23.4749V44.9086H21.4501V43.4623H23.4749V41.4375H24.9212V43.4623H26.9461V44.9021Z" fill="#577CFF"/>
<path d="M42.367 42.1832C42.367 41.5787 41.8779 41.0879 41.2733 41.0879C40.6688 41.0879 40.1797 41.577 40.1797 42.1816C40.1797 42.7861 40.6688 43.2752 41.2733 43.2752C41.8762 43.2752 42.3654 42.7861 42.367 42.1832Z" fill="black"/>
</svg>

<?xml version="1.0"?>
<svg width="66" height="65" xmlns="http://www.w3.org/2000/svg" xmlns:svg="http://www.w3.org/2000/svg">
 <g class="layer">
  <title>Layer 1</title>
  <rect fill="#F6F8FF" height="65" id="svg_1" rx="10" width="66"/>
  <path d="m26.61,26.15l0.23,-0.02c0.09,-0.01 0.16,-0.04 0.23,-0.09l0,0.01c0.22,0.75 0.48,1.54 0.82,2.36c0.42,1.09 0.84,1.97 1.31,2.83l-0.06,-0.13c-0.04,0.59 -0.09,1.2 -0.15,1.79c-0.03,0.36 -0.1,0.7 -0.21,1.02l0.01,-0.03c-0.02,0.01 -0.05,3.38 -0.05,3.38c0.01,2.2 1.53,4.04 3.58,4.53l0.03,0.01c0.09,-0.24 0.31,-0.4 0.58,-0.4l0.93,0c0.26,0 0.49,0.16 0.58,0.39l0,0.01c2.09,-0.5 3.61,-2.34 3.62,-4.54c0,0 -0.05,-3.36 -0.08,-3.38c-0.09,-0.28 -0.16,-0.62 -0.2,-0.96l0,-0.03c-0.06,-0.59 -0.1,-1.18 -0.15,-1.78c0.4,-0.73 0.82,-1.62 1.19,-2.53l0.06,-0.17c0.34,-0.83 0.6,-1.62 0.82,-2.37c0.06,0.04 0.14,0.08 0.23,0.09l0,0l0.23,0.01c0.27,0.03 0.52,-0.19 0.54,-0.55l0.25,-3.13c0,-0.01 0,-0.01 0,-0.01c0,-0.26 -0.2,-0.48 -0.46,-0.51l0,0l-0.03,0c0.07,-0.46 0.1,-0.99 0.1,-1.52c0,-1.17 -0.17,-2.29 -0.49,-3.36l0.02,0.09c-0.94,-2.06 -2.8,-3.55 -5.03,-3.97l-0.05,-0.01c-0.48,-0.1 -1.04,-0.16 -1.61,-0.18l-0.02,0l-0.01,0c-0.59,0.01 -1.15,0.08 -1.69,0.19l0.06,-0.01c-2.28,0.43 -4.14,1.92 -5.06,3.93l-0.02,0.05c-0.3,0.97 -0.48,2.09 -0.48,3.25c0,0.54 0.04,1.08 0.11,1.6l0,-0.06c-0.26,0.03 -0.46,0.24 -0.46,0.51l0,0.01l0.25,3.14c0.02,0.36 0.26,0.57 0.53,0.54l0,0z" fill="#F7DECE" id="svg_2"/>
  <path d="m50.8,46.92c-0.11,-4.94 -0.6,-6.06 -0.87,-6.82c-0.11,-0.3 -0.19,-2.36 -3.59,-3.69c-2.08,-0.82 -4.76,-0.83 -7.03,-1.79l0,2.67c-0.01,2.87 -2.06,5.26 -4.79,5.78l-0.03,0.01c-0.05,0.29 -0.31,0.52 -0.61,0.52l-0.03,0l0,2.01c0,1.97 1.6,3.57 3.56,3.57c1.97,0 3.57,-1.6 3.57,-3.57l0,-1.4c-0.99,-0.15 -1.74,-0.99 -1.74,-2.01c0,-1.12 0.91,-2.03 2.03,-2.03c1.12,0 2.03,0.91 2.03,2.03c0,0.89 -0.57,1.64 -1.36,1.92l-0.02,0l0,1.49l0,0.08c0,2.49 -2.02,4.51 -4.51,4.51c-2.49,0 -4.5,-2.02 -4.5,-4.51c0,-0.03 0,-0.05 0,-0.08l0,0l0,-2.03c-0.29,-0.02 -0.53,-0.24 -0.57,-0.52l0,0c-2.75,-0.54 -4.8,-2.92 -4.8,-5.78l0,-2.69c-2.29,0.98 -4.99,1 -7.08,1.82c-3.4,1.33 -3.48,3.38 -3.58,3.69c-0.26,0.76 -0.76,1.87 -0.88,6.81c-0.02,0.65 0,1.65 1.96,2.52c4.27,1.67 9.77,2.19 15.19,2.57l0.52,0c5.43,-0.37 10.92,-0.89 15.18,-2.57c1.95,-0.87 1.97,-1.86 1.95,-2.51zm-23.85,-2.02l-2.03,0l0,2.04l-1.45,0l0,-2.03l-2.02,0l0,-1.45l2.02,0l0,-2.02l1.45,0l0,2.02l2.03,0l0,1.44z" fill="#126a9c" id="svg_3"/>
  <path d="m42.37,42.18c0,-0.6 -0.49,-1.09 -1.1,-1.09c-0.6,0 -1.09,0.49 -1.09,1.09c0,0.61 0.49,1.1 1.09,1.1c0.61,0 1.1,-0.49 1.1,-1.1z" fill="black" id="svg_4"/>
 </g>
</svg>
